svg/600/outlined/share-fill.svg

<svg xmlns="http://www.w3.org/2000/svg" width="48" height="48" viewBox="0 -960 960 960"><path d="M726.967-67q-52.554 0-89.761-37.326-37.207-37.327-37.207-89.787 0-6.861 1.5-17.082t4.5-19.066l-282.086-164.13q-16.695 18.696-40.587 30.044-23.891 11.348-49.073 11.348-53.022 0-90.138-37.24-37.116-37.24-37.116-89.794 0-52.554 37.116-89.761 37.116-37.207 90.138-37.207 25.182 0 48.073 9.848 22.892 9.848 41.587 28.544l282.086-162.13q-3-7.637-4.5-17.337t-1.5-18.142q0-52.322 37.24-89.552 37.24-37.231 89.794-37.231 52.554 0 89.761 37.24 37.207 37.24 37.207 89.794 0 52.554-37.116 89.761-37.116 37.207-90.138 37.207-25.536 0-48.793-7.765-23.258-7.765-39.302-26.496L356.001-518.261q2.565 8.565 3.782 19.926 1.218 11.361 1.218 18.576 0 7.216-1.218 15.553-1.217 8.336-3.782 17.467L638.652-287.74q16.044-15.731 37.979-24.496 21.934-8.765 50.116-8.765 53.022 0 90.138 37.24 37.116 37.24 37.116 89.794 0 52.554-37.24 89.761-37.24 37.207-89.794 37.207Z"/></svg>

<svg xmlns="http://www.w3.org/2000/svg" width="48" height="48" viewBox="0 -960 960 960"><path d="M726.97-67q-52.56 0-89.76-37.33Q600-141.65 600-194.11q0-6.86 1.5-17.09 1.5-10.22 4.5-19.06L323.91-394.39q-16.69 18.69-40.58 30.04Q259.43-353 234.25-353q-53.02 0-90.14-37.24Q107-427.48 107-480.03q0-52.56 37.11-89.76Q181.23-607 234.25-607q25.18 0 48.08 9.85 22.89 9.85 41.58 28.54L606-730.74q-3-7.64-4.5-17.34t-1.5-18.14q0-52.32 37.24-89.55T727.03-893q52.56 0 89.76 37.24Q854-818.52 854-765.97q0 52.56-37.11 89.76Q779.77-639 726.75-639q-25.54 0-48.8-7.76-23.25-7.77-39.3-26.5L356-518.26q2.57 8.56 3.78 19.92 1.22 11.37 1.22 18.58 0 7.22-1.22 15.55-1.21 8.34-3.78 17.47l282.65 159q16.05-15.73 37.98-24.5 21.94-8.76 50.12-8.76 53.02 0 90.14 37.24Q854-246.52 854-193.97q0 52.56-37.24 89.76Q779.52-67 726.97-67Z"/></svg>
